X:1
T: The Duchess of Manchester
C:
R:Strathspey
Q: 128
K:F
M:4/4
L:1/16
|:C2|FF3 F3F A3F A3c|df3 c3A G4 G3A|FG3 G3G A3F A3c|dg3 c3A F4 F2:|
|:c2|f3g ag3 agfd cf3|df3 c3A G4 G3c|f3g ag3 agfd cf3|df3 c3A F4 F2:|
|:A2|C3F A,3F C3F Bd3|cA3 F3A G4 G3A|C3F A,3F C3F Bd3|cA3 f3A F4 F2:|
c2|f3g a3g agfd c3f|c3d f3a g4 g3a|f3g a3g agfd c3f|df3 c3A F4 F3c|
f3g a3g agfd c3f|c3d f3a g4 g2fg|a3f agfe f3c df3|c3B A3G F4 F2||
